X: 232
T: The Breast Knot
%O: 1795
%R: reel
Z: 2018 John Chambers <jc:trillian.mit.edu>
B: Wm. Campbell "10th Book of New and Favorite Country Dances, Strathspey Reels" 1795 p.23
F: https://archive.org/details/campbellstenthbo00camp
M: C|
L: 1/8
K: D
% - - - - - - - - - - - - - - - - - - - - - - - - -
% Voice 1 arranged for small-scale proofreading
V: 1 staves=2
|:\
(GBBG) (FAAF) | De-ed Tc2BA |\
GBBG FAAc | (d/c/B/A/) dF E2D2 :|
|:\
fdfd (faTgf) | (e=cec) (eTgfe) |\
fdfd (faac) | (dAAG) F2ED :|
% - - - - - - - - - - - - - - - - - - - - - - - - -
% Voice 1 preserves the original staff layout
V: 2 clef=bass middle=d
|:\
g2g2 d2d2 | e2e2 a2a2 | g2g2 d2d2 | d2d2 A2D2 :|\
|: d2d2
d2d2 | c2c2 c2c2 | d2d2 d2d2 | A2A2 d2D2 :|
% - - - - - - - - - - - - - - - - - - - - - - - - -
%%begintext align
%% 1st Cu foot it round the 2d & 3d Cu &
%% back again :|. lead down the
%% middle up again & allemande.
%%endtext
% - - - - - - - - - - - - - - - - - - - - - - - - -

%%sep 1 1 500
%%sep 1 1 500

